X:210
T:The Flyin' Fiddler's Reel
R:reel
C:Bruce Osborne - Jan. 2004
Z:abc by bosborne@kos.net
M:2/4
L:1/8
K:Bb
F/A/|B/A/B/c/ B/F/D/F/|B/A/B/c/ B/F/D/F/|E/D/E/F/ G/F/E/D/|C/B,/C/D/ CF/A/|\
B/A/B/c/ B/F/D/F/|B/A/B/c/ B/F/D/F/|E/D/E/F/ G/F/E/D/|C/B,/A,/C/ B,:|
|:D/F/|B/A/B/c/ Bd/e/|f/B/g/B/ fe/d/|c/B/c/d/ c/A/F/A/|g/f/f/_f/ =fD/F/|\
B/A/B/c/ Bd/e/|f/B/g/B/ fe/d/|c/B/c/d/ e/c/A/c/|B/A/d/c/ B:|
